report_00007_2020-12-11T15:55:29.892Z/network-rtt/comparison/sorted/12_vs_13.svg

<svg width="640" height="500" xmlns="http://www.w3.org/2000/svg" xmlns:xlink="http://www.w3.org/1999/xlink"><path fill="#fff" d="M0 0h640v500H0z"/><defs><path id="d" stroke-width=".222" stroke="currentColor" d="M-1-1h2v2h-2z"/><path id="b" stroke-width=".222" stroke="currentColor" d="M0-1.33l-1.33 2h2.66z"/><path id="f" stroke-width=".222" stroke="currentColor" d="M0 1.33L1.265.411.782-1.067l-1.564-.009-.483 1.487z"/><use xlink:href="#b" id="c" stroke="currentColor" transform="rotate(180)"/><use xlink:href="#d" id="e" stroke="currentColor" transform="rotate(45)"/><circle id="a" stroke-width=".222" stroke="currentColor" cx="0" cy="0" r="1"/></defs><g fill="none" color="#000" stroke="currentColor"><path stroke="#000" d="M62.2 401.9h9m543.8 0h-9"/><text transform="translate(53.9 405.8)" stroke="none" fill="#000" font-family="Arial" font-size="12" text-anchor="end"><tspan>0.03</tspan></text></g><g fill="none" color="#000" stroke="currentColor"><path stroke="#000" d="M62.2 342.9h9m543.8 0h-9"/><text transform="translate(53.9 346.8)" stroke="none" fill="#000" font-family="Arial" font-size="12" text-anchor="end"><tspan>0.04</tspan></text></g><g fill="none" color="#000" stroke="currentColor"><path stroke="#000" d="M62.2 284h9m543.8 0h-9"/><text transform="translate(53.9 287.9)" stroke="none" fill="#000" font-family="Arial" font-size="12" text-anchor="end"><tspan>0.05</tspan></text></g><g fill="none" color="#000" stroke="currentColor"><path stroke="#000" d="M62.2 225.1h9m543.8 0h-9"/><text transform="translate(53.9 229)" stroke="none" fill="#000" font-family="Arial" font-size="12" text-anchor="end"><tspan>0.06</tspan></text></g><g fill="none" color="#000" stroke="currentColor"><path stroke="#000" d="M62.2 166.2h9m543.8 0h-9"/><text transform="translate(53.9 170.1)" stroke="none" fill="#000" font-family="Arial" font-size="12" text-anchor="end"><tspan>0.07</tspan></text></g><g fill="none" color="#000" stroke="currentColor"><path stroke="#000" d="M62.2 107.3h9m543.8 0h-9"/><text transform="translate(53.9 111.2)" stroke="none" fill="#000" font-family="Arial" font-size="12" text-anchor="end"><tspan>0.08</tspan></text></g><g fill="none" color="#000" stroke="currentColor"><path stroke="#000" d="M62.2 48.4h9m543.8 0h-9"/><text transform="translate(53.9 52.3)" stroke="none" fill="#000" font-family="Arial" font-size="12" text-anchor="end"><tspan>0.09</tspan></text></g><g fill="none" color="#000" stroke="currentColor"><path stroke="#000" d="M62.2 428v-9m0-400.9v9"/><text transform="translate(62.2 449.9)" stroke="none" fill="#000" font-family="Arial" font-size="12" text-anchor="middle"><tspan>0</tspan></text></g><g fill="none" color="#000" stroke="currentColor"><path stroke="#000" d="M118 428v-9m0-400.9v9"/><text transform="translate(118 449.9)" stroke="none" fill="#000" font-family="Arial" font-size="12" text-anchor="middle"><tspan>10</tspan></text></g><g fill="none" color="#000" stroke="currentColor"><path stroke="#000" d="M173.9 428v-9m0-400.9v9"/><text transform="translate(173.9 449.9)" stroke="none" fill="#000" font-family="Arial" font-size="12" text-anchor="middle"><tspan>20</tspan></text></g><g fill="none" color="#000" stroke="currentColor"><path stroke="#000" d="M229.7 428v-9m0-400.9v9"/><text transform="translate(229.7 449.9)" stroke="none" fill="#000" font-family="Arial" font-size="12" text-anchor="middle"><tspan>30</tspan></text></g><g fill="none" color="#000" stroke="currentColor"><path stroke="#000" d="M285.6 428v-9m0-400.9v9"/><text transform="translate(285.6 449.9)" stroke="none" fill="#000" font-family="Arial" font-size="12" text-anchor="middle"><tspan>40</tspan></text></g><g fill="none" color="#000" stroke="currentColor"><path stroke="#000" d="M341.4 428v-9m0-400.9v9"/><text transform="translate(341.4 449.9)" stroke="none" fill="#000" font-family="Arial" font-size="12" text-anchor="middle"><tspan>50</tspan></text></g><g fill="none" color="#000" stroke="currentColor"><path stroke="#000" d="M397.2 428v-9m0-400.9v9"/><text transform="translate(397.2 449.9)" stroke="none" fill="#000" font-family="Arial" font-size="12" text-anchor="middle"><tspan>60</tspan></text></g><g fill="none" color="#000" stroke="currentColor"><path stroke="#000" d="M453.1 428v-9m0-400.9v9"/><text transform="translate(453.1 449.9)" stroke="none" fill="#000" font-family="Arial" font-size="12" text-anchor="middle"><tspan>70</tspan></text></g><g fill="none" color="#000" stroke="currentColor"><path stroke="#000" d="M508.9 428v-9m0-400.9v9"/><text transform="translate(508.9 449.9)" stroke="none" fill="#000" font-family="Arial" font-size="12" text-anchor="middle"><tspan>80</tspan></text></g><g fill="none" color="#000" stroke="currentColor"><path stroke="#000" d="M564.7 428v-9m0-400.9v9"/><text transform="translate(564.7 449.9)" stroke="none" fill="#000" font-family="Arial" font-size="12" text-anchor="middle"><tspan>90</tspan></text></g><path stroke="#000" d="M62.2 18.1V428H615V18.1H62.2z" fill="none" color="#000"/><text transform="translate(533.3 467.9)" stroke="none" fill="#000" font-family="Arial" font-size="12" text-anchor="end" color="#000"><tspan>pages+cached+noexternal+nofonts+nosvg+noimg+nocss</tspan></text><path stroke="#9400D3" d="M541.6 464h42.2M62.2 420.1l5.6-111.3 5.6-1.2 5.6-1.2 5.5-.6 5.6-5.9 5.6-5.9 5.6-3.5 5.6-1.8 5.6-4.7 5.5-1.7 5.6-1.2 5.6-4.1 5.6-4.8 5.6-.5 5.6-1.2 5.5-1.8 5.6-1.8 5.6-.5 5.6-3.6 5.6-2.3H185l5.6-2.4 5.6-11.8 5.6-2.9 5.6-2.4 5.6-1.2 5.5-1.1 5.6-4.2 5.6-1.7h5.6l5.6-1.8 5.6-2.9 5.6-2.4 5.5-1.8 5.6-5.3 5.6-1.7 5.6-1.2 5.6-4.1 5.6-1.2 5.5-.6 5.6-1.2 5.6-1.2 5.6-.6 5.6-.5 5.6-3.6 5.5-1.2 5.6-8.2h11.2l5.6-1.8 5.6-1.1 5.5-1.2 5.6-2.4 5.6-4.1h5.6l5.6-1.8 5.6-2.9 5.5-.6 5.6-.6 5.6-.6 5.6-1.8 5.6-1.1 5.6-3.6 5.5-1.7 5.6-.6 5.6-1.8 5.6-.6h11.2l5.6-7 5.5-.6 5.6-1.2 5.6-.6 5.6-.6 5.6-1.2 5.6-1.2 5.5-1.1 5.6-.6 5.6-.6 5.6-5.3h5.6l5.6-.6 5.5-8.2 5.6-1.2 5.6-1.2 5.6-18.9 5.6-2.9h5.6l5.5-5.9 5.6-4.7 5.6-3 5.6-5.8 5.6-1.8 5.6-8.8 5.5-1.2 5.6-8.9 5.6-.6L615 66" fill="none" color="#000"/><text transform="translate(533.3 485.9)" stroke="none" fill="#000" font-family="Arial" font-size="12" text-anchor="end" color="#000"><tspan>pages+cached+noexternal+nofonts+nosvg+noimg+nocss+nojs</tspan></text><path stroke="#009E73" d="M541.6 482h42.2M62.2 409.5l5.6-21.2 5.6-19.4 5.6-14.8 5.5-1.7 5.6-15.9 5.6-11.8 5.6-1.8 5.6-20 5.6-3.6 5.5-.5 5.6-5.9 5.6-1.8 5.6-1.2 5.6-1.2 5.6-1.1 5.5-.6h5.6l5.6-11.2 5.6-5.3 5.6-1.2 5.6-2.4 5.5-.5 5.6-1.8 5.6-.6 5.6-1.2 5.6-2.3 5.6-1.8 5.5-3 5.6-5.3 5.6-.5 5.6-11.2 5.6-4.2 5.6-1.1 5.6-1.8 5.5-2.4 5.6-2.3 5.6-4.7 5.6-3h5.6l5.6-1.2 5.5-1.1 5.6-3.6h5.6l5.6-.6 5.6-1.7 5.6-2.4 5.5-.6h5.6l5.6-1.7 5.6-5.9 5.6-1.8 5.6-1.2 5.5-1.7 5.6-.6 5.6-.6 5.6-.6 5.6-1.2 5.6-1.8 5.5-.5 5.6-1.2 5.6-1.2 5.6-3.5 5.6-3 5.6-1.2h5.5l5.6-2.3 5.6-1.2 5.6-1.2h11.2l5.6-3.5 5.5-1.2 5.6-.6 5.6-1.2 5.6-2.9 5.6-1.2 5.6-2.3 5.5-.6 5.6-.6 5.6-3 5.6-1.7 5.6-2.4h5.6l5.5-.6h5.6l5.6-1.7 5.6-1.2 5.6-2.4h5.6l5.5-7h5.6l5.6-1.2 5.6-11.2 5.6-1.2 5.6-18.8 5.5-10.7 5.6-12.3 5.6-23L615 26" fill="none" color="#000"/><g fill="none" color="#000" stroke="currentColor"><path stroke="#000" d="M62.2 18.1V428H615V18.1H62.2z"/></g></svg>

<?xml version="1.0" encoding="utf-8"  standalone="no"?>
<svg 
 width="640" height="500"
 viewBox="0 0 640 500"
 xmlns="http://www.w3.org/2000/svg"
 xmlns:xlink="http://www.w3.org/1999/xlink"
>

<title>Gnuplot</title>
<desc>Produced by GNUPLOT 5.4 patchlevel 0 </desc>

<g id="gnuplot_canvas">

<rect x="0" y="0" width="640" height="500" fill="#ffffff"/>
<defs>

	<circle id='gpDot' r='0.5' stroke-width='0.5' stroke='currentColor'/>
	<path id='gpPt0' stroke-width='0.222' stroke='currentColor' d='M-1,0 h2 M0,-1 v2'/>
	<path id='gpPt1' stroke-width='0.222' stroke='currentColor' d='M-1,-1 L1,1 M1,-1 L-1,1'/>
	<path id='gpPt2' stroke-width='0.222' stroke='currentColor' d='M-1,0 L1,0 M0,-1 L0,1 M-1,-1 L1,1 M-1,1 L1,-1'/>
	<rect id='gpPt3' stroke-width='0.222' stroke='currentColor' x='-1' y='-1' width='2' height='2'/>
	<rect id='gpPt4' stroke-width='0.222' stroke='currentColor' fill='currentColor' x='-1' y='-1' width='2' height='2'/>
	<circle id='gpPt5' stroke-width='0.222' stroke='currentColor' cx='0' cy='0' r='1'/>
	<use xlink:href='#gpPt5' id='gpPt6' fill='currentColor' stroke='none'/>
	<path id='gpPt7' stroke-width='0.222' stroke='currentColor' d='M0,-1.33 L-1.33,0.67 L1.33,0.67 z'/>
	<use xlink:href='#gpPt7' id='gpPt8' fill='currentColor' stroke='none'/>
	<use xlink:href='#gpPt7' id='gpPt9' stroke='currentColor' transform='rotate(180)'/>
	<use xlink:href='#gpPt9' id='gpPt10' fill='currentColor' stroke='none'/>
	<use xlink:href='#gpPt3' id='gpPt11' stroke='currentColor' transform='rotate(45)'/>
	<use xlink:href='#gpPt11' id='gpPt12' fill='currentColor' stroke='none'/>
	<path id='gpPt13' stroke-width='0.222' stroke='currentColor' d='M0,1.330 L1.265,0.411 L0.782,-1.067 L-0.782,-1.076 L-1.265,0.411 z'/>
	<use xlink:href='#gpPt13' id='gpPt14' fill='currentColor' stroke='none'/>
	<filter id='textbox' filterUnits='objectBoundingBox' x='0' y='0' height='1' width='1'>
	  <feFlood flood-color='#FFFFFF' flood-opacity='1' result='bgnd'/>
	  <feComposite in='SourceGraphic' in2='bgnd' operator='atop'/>
	</filter>
	<filter id='greybox' filterUnits='objectBoundingBox' x='0' y='0' height='1' width='1'>
	  <feFlood flood-color='lightgrey' flood-opacity='1' result='grey'/>
	  <feComposite in='SourceGraphic' in2='grey' operator='atop'/>
	</filter>
</defs>
<g fill="none" color="#FFFFFF" stroke="black" stroke-width="1.00" stroke-linecap="butt" stroke-linejoin="miter">
</g>
<g fill="none" color="black" stroke="currentColor" stroke-width="1.00" stroke-linecap="butt" stroke-linejoin="miter">
	<path stroke='black'  d='M62.2,401.9 L71.2,401.9 M615.0,401.9 L606.0,401.9  '/>	<g transform="translate(53.9,405.8)" stroke="none" fill="black" font-family="Arial" font-size="12.00"  text-anchor="end">
		<text><tspan font-family="Arial" > 0.03</tspan></text>
	</g>
</g>
<g fill="none" color="black" stroke="currentColor" stroke-width="1.00" stroke-linecap="butt" stroke-linejoin="miter">
	<path stroke='black'  d='M62.2,342.9 L71.2,342.9 M615.0,342.9 L606.0,342.9  '/>	<g transform="translate(53.9,346.8)" stroke="none" fill="black" font-family="Arial" font-size="12.00"  text-anchor="end">
		<text><tspan font-family="Arial" > 0.04</tspan></text>
	</g>
</g>
<g fill="none" color="black" stroke="currentColor" stroke-width="1.00" stroke-linecap="butt" stroke-linejoin="miter">
	<path stroke='black'  d='M62.2,284.0 L71.2,284.0 M615.0,284.0 L606.0,284.0  '/>	<g transform="translate(53.9,287.9)" stroke="none" fill="black" font-family="Arial" font-size="12.00"  text-anchor="end">
		<text><tspan font-family="Arial" > 0.05</tspan></text>
	</g>
</g>
<g fill="none" color="black" stroke="currentColor" stroke-width="1.00" stroke-linecap="butt" stroke-linejoin="miter">
	<path stroke='black'  d='M62.2,225.1 L71.2,225.1 M615.0,225.1 L606.0,225.1  '/>	<g transform="translate(53.9,229.0)" stroke="none" fill="black" font-family="Arial" font-size="12.00"  text-anchor="end">
		<text><tspan font-family="Arial" > 0.06</tspan></text>
	</g>
</g>
<g fill="none" color="black" stroke="currentColor" stroke-width="1.00" stroke-linecap="butt" stroke-linejoin="miter">
	<path stroke='black'  d='M62.2,166.2 L71.2,166.2 M615.0,166.2 L606.0,166.2  '/>	<g transform="translate(53.9,170.1)" stroke="none" fill="black" font-family="Arial" font-size="12.00"  text-anchor="end">
		<text><tspan font-family="Arial" > 0.07</tspan></text>
	</g>
</g>
<g fill="none" color="black" stroke="currentColor" stroke-width="1.00" stroke-linecap="butt" stroke-linejoin="miter">
	<path stroke='black'  d='M62.2,107.3 L71.2,107.3 M615.0,107.3 L606.0,107.3  '/>	<g transform="translate(53.9,111.2)" stroke="none" fill="black" font-family="Arial" font-size="12.00"  text-anchor="end">
		<text><tspan font-family="Arial" > 0.08</tspan></text>
	</g>
</g>
<g fill="none" color="black" stroke="currentColor" stroke-width="1.00" stroke-linecap="butt" stroke-linejoin="miter">
	<path stroke='black'  d='M62.2,48.4 L71.2,48.4 M615.0,48.4 L606.0,48.4  '/>	<g transform="translate(53.9,52.3)" stroke="none" fill="black" font-family="Arial" font-size="12.00"  text-anchor="end">
		<text><tspan font-family="Arial" > 0.09</tspan></text>
	</g>
</g>
<g fill="none" color="black" stroke="currentColor" stroke-width="1.00" stroke-linecap="butt" stroke-linejoin="miter">
	<path stroke='black'  d='M62.2,428.0 L62.2,419.0 M62.2,18.1 L62.2,27.1  '/>	<g transform="translate(62.2,449.9)" stroke="none" fill="black" font-family="Arial" font-size="12.00"  text-anchor="middle">
		<text><tspan font-family="Arial" > 0</tspan></text>
	</g>
</g>
<g fill="none" color="black" stroke="currentColor" stroke-width="1.00" stroke-linecap="butt" stroke-linejoin="miter">
	<path stroke='black'  d='M118.0,428.0 L118.0,419.0 M118.0,18.1 L118.0,27.1  '/>	<g transform="translate(118.0,449.9)" stroke="none" fill="black" font-family="Arial" font-size="12.00"  text-anchor="middle">
		<text><tspan font-family="Arial" > 10</tspan></text>
	</g>
</g>
<g fill="none" color="black" stroke="currentColor" stroke-width="1.00" stroke-linecap="butt" stroke-linejoin="miter">
	<path stroke='black'  d='M173.9,428.0 L173.9,419.0 M173.9,18.1 L173.9,27.1  '/>	<g transform="translate(173.9,449.9)" stroke="none" fill="black" font-family="Arial" font-size="12.00"  text-anchor="middle">
		<text><tspan font-family="Arial" > 20</tspan></text>
	</g>
</g>
<g fill="none" color="black" stroke="currentColor" stroke-width="1.00" stroke-linecap="butt" stroke-linejoin="miter">
	<path stroke='black'  d='M229.7,428.0 L229.7,419.0 M229.7,18.1 L229.7,27.1  '/>	<g transform="translate(229.7,449.9)" stroke="none" fill="black" font-family="Arial" font-size="12.00"  text-anchor="middle">
		<text><tspan font-family="Arial" > 30</tspan></text>
	</g>
</g>
<g fill="none" color="black" stroke="currentColor" stroke-width="1.00" stroke-linecap="butt" stroke-linejoin="miter">
	<path stroke='black'  d='M285.6,428.0 L285.6,419.0 M285.6,18.1 L285.6,27.1  '/>	<g transform="translate(285.6,449.9)" stroke="none" fill="black" font-family="Arial" font-size="12.00"  text-anchor="middle">
		<text><tspan font-family="Arial" > 40</tspan></text>
	</g>
</g>
<g fill="none" color="black" stroke="currentColor" stroke-width="1.00" stroke-linecap="butt" stroke-linejoin="miter">
	<path stroke='black'  d='M341.4,428.0 L341.4,419.0 M341.4,18.1 L341.4,27.1  '/>	<g transform="translate(341.4,449.9)" stroke="none" fill="black" font-family="Arial" font-size="12.00"  text-anchor="middle">
		<text><tspan font-family="Arial" > 50</tspan></text>
	</g>
</g>
<g fill="none" color="black" stroke="currentColor" stroke-width="1.00" stroke-linecap="butt" stroke-linejoin="miter">
	<path stroke='black'  d='M397.2,428.0 L397.2,419.0 M397.2,18.1 L397.2,27.1  '/>	<g transform="translate(397.2,449.9)" stroke="none" fill="black" font-family="Arial" font-size="12.00"  text-anchor="middle">
		<text><tspan font-family="Arial" > 60</tspan></text>
	</g>
</g>
<g fill="none" color="black" stroke="currentColor" stroke-width="1.00" stroke-linecap="butt" stroke-linejoin="miter">
	<path stroke='black'  d='M453.1,428.0 L453.1,419.0 M453.1,18.1 L453.1,27.1  '/>	<g transform="translate(453.1,449.9)" stroke="none" fill="black" font-family="Arial" font-size="12.00"  text-anchor="middle">
		<text><tspan font-family="Arial" > 70</tspan></text>
	</g>
</g>
<g fill="none" color="black" stroke="currentColor" stroke-width="1.00" stroke-linecap="butt" stroke-linejoin="miter">
	<path stroke='black'  d='M508.9,428.0 L508.9,419.0 M508.9,18.1 L508.9,27.1  '/>	<g transform="translate(508.9,449.9)" stroke="none" fill="black" font-family="Arial" font-size="12.00"  text-anchor="middle">
		<text><tspan font-family="Arial" > 80</tspan></text>
	</g>
</g>
<g fill="none" color="black" stroke="currentColor" stroke-width="1.00" stroke-linecap="butt" stroke-linejoin="miter">
	<path stroke='black'  d='M564.7,428.0 L564.7,419.0 M564.7,18.1 L564.7,27.1  '/>	<g transform="translate(564.7,449.9)" stroke="none" fill="black" font-family="Arial" font-size="12.00"  text-anchor="middle">
		<text><tspan font-family="Arial" > 90</tspan></text>
	</g>
</g>
<g fill="none" color="black" stroke="currentColor" stroke-width="1.00" stroke-linecap="butt" stroke-linejoin="miter">
</g>
<g fill="none" color="black" stroke="currentColor" stroke-width="1.00" stroke-linecap="butt" stroke-linejoin="miter">
	<path stroke='black'  d='M62.2,18.1 L62.2,428.0 L615.0,428.0 L615.0,18.1 L62.2,18.1 Z  '/></g>
<g fill="none" color="black" stroke="currentColor" stroke-width="1.00" stroke-linecap="butt" stroke-linejoin="miter">
</g>
	<g id="gnuplot_plot_1" ><title>pages+cached+noexternal+nofonts+nosvg+noimg+nocss</title>
<g fill="none" color="black" stroke="currentColor" stroke-width="1.00" stroke-linecap="butt" stroke-linejoin="miter">
	<g transform="translate(533.3,467.9)" stroke="none" fill="black" font-family="Arial" font-size="12.00"  text-anchor="end">
		<text><tspan font-family="Arial" >pages+cached+noexternal+nofonts+nosvg+noimg+nocss</tspan></text>
	</g>
</g>
<g fill="none" color="black" stroke="currentColor" stroke-width="1.00" stroke-linecap="butt" stroke-linejoin="miter">
	<path stroke='rgb(148,   0, 211)'  d='M541.6,464.0 L583.8,464.0 M62.2,420.1 L67.8,308.8 L73.4,307.6 L79.0,306.4 L84.5,305.8 L90.1,299.9
		L95.7,294.0 L101.3,290.5 L106.9,288.7 L112.5,284.0 L118.0,282.3 L123.6,281.1 L129.2,277.0 L134.8,272.2
		L140.4,271.7 L146.0,270.5 L151.5,268.7 L157.1,266.9 L162.7,266.4 L168.3,262.8 L173.9,260.5 L179.5,260.5
		L185.0,260.5 L190.6,258.1 L196.2,246.3 L201.8,243.4 L207.4,241.0 L213.0,239.8 L218.5,238.7 L224.1,234.5
		L229.7,232.8 L235.3,232.8 L240.9,231.0 L246.5,228.1 L252.1,225.7 L257.6,223.9 L263.2,218.6 L268.8,216.9
		L274.4,215.7 L280.0,211.6 L285.6,210.4 L291.1,209.8 L296.7,208.6 L302.3,207.4 L307.9,206.8 L313.5,206.3
		L319.1,202.7 L324.6,201.5 L330.2,193.3 L335.8,193.3 L341.4,193.3 L347.0,191.5 L352.6,190.4 L358.1,189.2
		L363.7,186.8 L369.3,182.7 L374.9,182.7 L380.5,180.9 L386.1,178.0 L391.6,177.4 L397.2,176.8 L402.8,176.2
		L408.4,174.4 L414.0,173.3 L419.6,169.7 L425.1,168.0 L430.7,167.4 L436.3,165.6 L441.9,165.0 L447.5,165.0
		L453.1,165.0 L458.7,158.0 L464.2,157.4 L469.8,156.2 L475.4,155.6 L481.0,155.0 L486.6,153.8 L492.2,152.6
		L497.7,151.5 L503.3,150.9 L508.9,150.3 L514.5,145.0 L520.1,145.0 L525.7,144.4 L531.2,136.2 L536.8,135.0
		L542.4,133.8 L548.0,114.9 L553.6,112.0 L559.2,112.0 L564.7,106.1 L570.3,101.4 L575.9,98.4 L581.5,92.6
		L587.1,90.8 L592.7,82.0 L598.2,80.8 L603.8,71.9 L609.4,71.3 L615.0,66.0  '/></g>
	</g>
	<g id="gnuplot_plot_2" ><title>pages+cached+noexternal+nofonts+nosvg+noimg+nocss+nojs</title>
<g fill="none" color="black" stroke="currentColor" stroke-width="1.00" stroke-linecap="butt" stroke-linejoin="miter">
	<g transform="translate(533.3,485.9)" stroke="none" fill="black" font-family="Arial" font-size="12.00"  text-anchor="end">
		<text><tspan font-family="Arial" >pages+cached+noexternal+nofonts+nosvg+noimg+nocss+nojs</tspan></text>
	</g>
</g>
<g fill="none" color="black" stroke="currentColor" stroke-width="1.00" stroke-linecap="butt" stroke-linejoin="miter">
	<path stroke='rgb(  0, 158, 115)'  d='M541.6,482.0 L583.8,482.0 M62.2,409.5 L67.8,388.3 L73.4,368.9 L79.0,354.1 L84.5,352.4 L90.1,336.5
		L95.7,324.7 L101.3,322.9 L106.9,302.9 L112.5,299.3 L118.0,298.8 L123.6,292.9 L129.2,291.1 L134.8,289.9
		L140.4,288.7 L146.0,287.6 L151.5,287.0 L157.1,287.0 L162.7,275.8 L168.3,270.5 L173.9,269.3 L179.5,266.9
		L185.0,266.4 L190.6,264.6 L196.2,264.0 L201.8,262.8 L207.4,260.5 L213.0,258.7 L218.5,255.7 L224.1,250.4
		L229.7,249.9 L235.3,238.7 L240.9,234.5 L246.5,233.4 L252.1,231.6 L257.6,229.2 L263.2,226.9 L268.8,222.2
		L274.4,219.2 L280.0,219.2 L285.6,218.0 L291.1,216.9 L296.7,213.3 L302.3,213.3 L307.9,212.7 L313.5,211.0
		L319.1,208.6 L324.6,208.0 L330.2,208.0 L335.8,206.3 L341.4,200.4 L347.0,198.6 L352.6,197.4 L358.1,195.7
		L363.7,195.1 L369.3,194.5 L374.9,193.9 L380.5,192.7 L386.1,190.9 L391.6,190.4 L397.2,189.2 L402.8,188.0
		L408.4,184.5 L414.0,181.5 L419.6,180.3 L425.1,180.3 L430.7,178.0 L436.3,176.8 L441.9,175.6 L447.5,175.6
		L453.1,175.6 L458.7,172.1 L464.2,170.9 L469.8,170.3 L475.4,169.1 L481.0,166.2 L486.6,165.0 L492.2,162.7
		L497.7,162.1 L503.3,161.5 L508.9,158.5 L514.5,156.8 L520.1,154.4 L525.7,154.4 L531.2,153.8 L536.8,153.8
		L542.4,152.1 L548.0,150.9 L553.6,148.5 L559.2,148.5 L564.7,141.5 L570.3,141.5 L575.9,140.3 L581.5,129.1
		L587.1,127.9 L592.7,109.1 L598.2,98.4 L603.8,86.1 L609.4,63.1 L615.0,26.0  '/></g>
	</g>
<g fill="none" color="#FFFFFF" stroke="rgb(  0, 158, 115)" stroke-width="2.00" stroke-linecap="butt" stroke-linejoin="miter">
</g>
<g fill="none" color="black" stroke="currentColor" stroke-width="2.00" stroke-linecap="butt" stroke-linejoin="miter">
</g>
<g fill="none" color="black" stroke="black" stroke-width="1.00" stroke-linecap="butt" stroke-linejoin="miter">
</g>
<g fill="none" color="black" stroke="currentColor" stroke-width="1.00" stroke-linecap="butt" stroke-linejoin="miter">
	<path stroke='black'  d='M62.2,18.1 L62.2,428.0 L615.0,428.0 L615.0,18.1 L62.2,18.1 Z  '/></g>
<g fill="none" color="black" stroke="currentColor" stroke-width="1.00" stroke-linecap="butt" stroke-linejoin="miter">
</g>
</g>
</svg>
